X:29
T: Five and A'the Lands about it
N: HA029
O: Europa, Mitteleuropa, Deutschland
N: Vorschlge
M: 4/4
L: 1/16
K: D
B,4D3ED4d4 | A6F2A4D4 |
d4D4D2E2F2G2 | A4G3FE8 |
G4B2c2B4d4 | D2E2F2G2A4A,4 |
B,4D4B6A2 | F2G2A2B2A8 |
d2e2f2e2d4A4 | B6A2F4A4 |
B4d2c2d4A4 | G2F2E2D2A8 |
B2A2B2c2d6e2 | f4e2d2e4E4 |
F4A4B6A2 | d4D2E2D8

@@@ Tune index: 7254
